iconography/32x32/PHP.svg

<svg width="32" height="32" viewBox="0 0 32 32" fill="none" xmlns="http://www.w3.org/2000/svg">
<path d="M7.64599 19.2739C7.6123 19.6842 7.26947 20 6.8578 20C6.39574 20 6.03209 19.6056 6.06955 19.145L6.49471 13.9189C6.53694 13.3998 6.97057 13 7.49142 13H9.78287C10.5557 13 11.1523 13.1835 11.5726 13.5506C11.9997 13.911 12.2133 14.3764 12.2133 14.9466C12.2133 15.6414 11.9828 16.1854 11.5218 16.5787C11.0675 16.9719 10.4167 17.1685 9.56931 17.1685H7.81278C7.34537 17.1685 7.06673 16.6474 7.3263 16.2587C7.43483 16.0962 7.61735 15.9986 7.81278 15.9986H9.42695C9.84727 15.9986 10.1659 15.9167 10.3828 15.7528C10.6066 15.5824 10.7184 15.3432 10.7184 15.0351C10.7184 14.7598 10.6235 14.5501 10.4337 14.4059C10.2506 14.2551 9.96591 14.1798 9.57948 14.1798H8.06431L7.64599 19.2739Z" fill="#2E3141"/>
<path d="M18.6106 20C18.1545 20 17.7958 19.6103 17.8334 19.1558L18.2842 13.7119C18.3175 13.3095 18.6538 13 19.0575 13C19.5108 13 19.8675 13.387 19.8308 13.8388L19.3879 19.2834C19.3549 19.6882 19.0168 20 18.6106 20ZM13.7086 20C13.2526 20 12.8937 19.6108 12.9307 19.1563L13.3732 13.7172C13.4062 13.312 13.7446 13 14.1511 13C14.607 13 14.9659 13.3892 14.9289 13.8437L14.4864 19.2828C14.4535 19.688 14.1151 20 13.7086 20ZM14.262 17.0506C13.9081 17.0506 13.6299 16.7479 13.6595 16.3953C13.6859 16.0821 13.9477 15.8413 14.262 15.8413H18.3919C18.7478 15.8413 19.0267 16.1472 18.9939 16.5016C18.9651 16.8126 18.7042 17.0506 18.3919 17.0506H14.262Z" fill="#2E3141"/>
<path d="M22.4327 19.2739C22.399 19.6842 22.0562 20 21.6445 20C21.1825 20 20.8188 19.6056 20.8563 19.145L21.2815 13.9189C21.3237 13.3998 21.7573 13 22.2782 13H24.5696C25.3425 13 25.939 13.1835 26.3594 13.5506C26.7865 13.911 27 14.3764 27 14.9466C27 15.6414 26.7695 16.1854 26.3085 16.5787C25.8543 16.9719 25.2035 17.1685 24.3561 17.1685H22.0504C21.7154 17.1685 21.4488 16.8877 21.4662 16.5531C21.4824 16.2423 21.7392 15.9986 22.0504 15.9986H24.2137C24.634 15.9986 24.9526 15.9167 25.1696 15.7528C25.3933 15.5824 25.5052 15.3432 25.5052 15.0351C25.5052 14.7598 25.4102 14.5501 25.2204 14.4059C25.0374 14.2551 24.7527 14.1798 24.3662 14.1798H23.7723C23.2517 14.1798 22.8183 14.5791 22.7757 15.0979L22.4327 19.2739Z" fill="#2E3141"/>
<path d="M31 16.5C31 18.9537 29.4839 21.3043 26.7651 23.0886C24.0547 24.8672 20.2515 26 16 26C11.7485 26 7.9453 24.8672 5.23495 23.0886C2.51609 21.3043 1 18.9537 1 16.5C1 14.0463 2.51609 11.6957 5.23495 9.91143C7.9453 8.13276 11.7485 7 16 7C20.2515 7 24.0547 8.13276 26.7651 9.91143C29.4839 11.6957 31 14.0463 31 16.5Z" stroke="#2E3141" stroke-width="2" stroke-linecap="round"/>
</svg>

<svg width="32" height="32" fill="none" xmlns="http://www.w3.org/2000/svg"><path d="M7.646 19.274a.79.79 0 0 1-1.576-.129l.425-5.226A1 1 0 0 1 7.49 13h2.292c.773 0 1.37.184 1.79.55.427.361.64.826.64 1.397 0 .694-.23 1.238-.691 1.632-.454.393-1.105.59-1.953.59H7.813a.585.585 0 1 1 0-1.17h1.614c.42 0 .739-.082.956-.246.224-.17.335-.41.335-.718 0-.275-.095-.485-.284-.63-.183-.15-.468-.225-.855-.225H8.064l-.418 5.094ZM18.61 20a.78.78 0 0 1-.777-.844l.451-5.444a.776.776 0 0 1 1.547.127l-.443 5.444a.78.78 0 0 1-.777.717Zm-4.901 0a.78.78 0 0 1-.778-.844l.442-5.439a.78.78 0 0 1 1.556.127l-.443 5.439a.78.78 0 0 1-.777.717Zm.553-2.95a.605.605 0 0 1 0-1.209h4.13a.605.605 0 0 1 0 1.21h-4.13Zm8.171 2.224a.79.79 0 0 1-1.577-.129l.425-5.226a1 1 0 0 1 .997-.919h2.292c.773 0 1.369.184 1.79.55.427.361.64.826.64 1.397 0 .694-.23 1.238-.692 1.632-.454.393-1.105.59-1.952.59H22.05a.585.585 0 0 1 0-1.17h2.164c.42 0 .739-.082.956-.246.223-.17.335-.41.335-.718 0-.275-.095-.485-.285-.63-.183-.15-.467-.225-.854-.225h-.594a1 1 0 0 0-.996.918l-.343 4.176Z" fill="#2E3141"/><path d="M31 16.5c0 2.454-1.516 4.804-4.235 6.589C24.055 24.867 20.251 26 16 26c-4.252 0-8.055-1.133-10.765-2.911C2.516 21.304 1 18.954 1 16.5c0-2.454 1.516-4.804 4.235-6.589C7.945 8.133 11.748 7 16 7c4.252 0 8.055 1.133 10.765 2.911C29.484 11.696 31 14.046 31 16.5Z" stroke="#2E3141" stroke-width="2" stroke-linecap="round"/></svg>
